swiss/communes/0022.svg

<?xml version="1.0" encoding="UTF-8" standalone="no"?>
<!-- Created with Inkscape (http://www.inkscape.org/) -->
<svg
   xmlns:svg="http://www.w3.org/2000/svg"
   xmlns="http://www.w3.org/2000/svg"
   xmlns:xlink="http://www.w3.org/1999/xlink"
   version="1.0"
   width="220.64915"
   height="258.45612"
   id="svg2780">
  <defs
     id="defs2782" />
  <g
     transform="translate(-2.4327548,-797.81041)"
     id="layer1">
    <path
       d="M 3.4327548,798.81041 L 7.4081899,965.80509 C 10.247779,1085.087 215.26688,1085.087 218.10648,965.80509 L 222.08191,798.81041 L 3.4327548,798.81041 z"
       id="path3282"
       style="fill:#2161c4;fill-opacity:1;fill-rule:evenodd;stroke:none;stroke-width:2;stroke-linecap:butt;stroke-miterlimit:4;stroke-dashoffset:0;stroke-opacity:1" />
    <path
       d="M 3.5,-5.53125 L 207.75,201.71875 C 213.98926,190.29333 217.72705,176.87263 218.09375,161.46875 L 222.09375,-5.53125 L 3.5,-5.53125 z"
       transform="translate(0,804.33069)"
       id="rect4575"
       style="opacity:1;color:#000000;fill:#ffffff;fill-opacity:1;fill-rule:evenodd;stroke:#000000;stroke-width:1.00000012px;stroke-linecap:butt;stroke-linejoin:miter;marker:none;marker-start:none;marker-mid:none;marker-end:none;stroke-miterlimit:4;stroke-dasharray:none;stroke-dashoffset:0;stroke-opacity:1;visibility:visible;display:inline;overflow:visible;enable-background:accumulate" />
    <g
       transform="matrix(0.4334292,-0.4334292,0.4342366,0.4342366,-306.23083,522.6823)"
       id="g3431"
       style="fill:#2161c4;fill-opacity:1;stroke:#000000;stroke-width:1.62990654;stroke-opacity:1">
      <path
         d="M 186.60536,960.23699 C 181.0874,902.52996 161.045,853.76471 125.68664,808.25453 C 124.72048,807.01088 123.26155,807.04961 122.31749,808.25453 C 86.837642,853.5366 66.944112,902.52996 61.426157,960.23699 C 103.21795,979.86616 144.85901,978.83463 186.60536,960.23699 z"
         id="path4911"
         style="fill:#2161c4;fill-opacity:1;fill-rule:evenodd;stroke:#000000;stroke-width:1.62990654px;stroke-linecap:butt;stroke-linejoin:round;stroke-opacity:1" />
      <path
         d="M 62.054119,955.34016 C 103.41691,974.56374 144.63328,973.56237 185.95148,955.33663"
         id="path4823"
         style="fill:#2161c4;fill-opacity:1;fill-rule:evenodd;stroke:#000000;stroke-width:1.62990654px;stroke-linecap:butt;stroke-linejoin:round;stroke-opacity:1" />
      <path
         d="M 101.02511,1020.6712 L 123.83065,1029.5725 L 146.86569,1020.6712 C 147.90269,976.93659 144.77082,931.48606 127.07153,891.48945 C 125.60752,888.18112 122.31038,888.19541 120.81927,891.48945 C 102.70377,931.50877 100.66359,976.92898 101.02511,1020.6712 z"
         id="path4396"
         style="fill:#2161c4;fill-opacity:1;fill-rule:evenodd;stroke:#000000;stroke-width:1.62990654px;stroke-linecap:butt;stroke-linejoin:miter;stroke-opacity:1" />
      <path
         d="M 95.783403,971.9326 L 92.480443,1016.3706 L 113.88523,1002.8701 L 114.1248,965.56955 C 109.93357,966.14565 98.926837,968.51542 95.783403,971.9326 z"
         id="path4924"
         style="fill:#2161c4;fill-opacity:1;fill-rule:evenodd;stroke:#000000;stroke-width:1.62862325;stroke-linecap:butt;stroke-linejoin:round;stroke-miterlimit:4;stroke-dasharray:none;stroke-opacity:1" />
      <path
         d="M 124.01576,1026.5134 C 135.11815,1026.5134 146.86895,1022.2782 146.86895,1017.0458 C 146.86895,1013.1765 138.27688,1008.3171 131.69098,1006.5228 L 134.14629,1002.8701 C 143.49593,1003.9374 155.55108,1009.9959 155.55108,1016.9797 C 155.55108,1024.1074 140.86984,1029.72 124.01576,1029.72 C 107.16168,1029.72 92.480435,1024.1074 92.480435,1016.9797 C 92.480435,1009.9959 104.53559,1003.9374 113.88523,1002.8701 L 116.34053,1006.5228 C 109.75463,1008.3171 101.16256,1013.1765 101.16256,1017.0458 C 101.16256,1022.2782 112.91336,1026.5134 124.01576,1026.5134 z"
         id="path4918"
         style="fill:#2161c4;fill-opacity:1;fill-rule:evenodd;stroke:#000000;stroke-width:1.62862325;stroke-linecap:butt;stroke-linejoin:round;stroke-miterlimit:4;stroke-dasharray:none;stroke-opacity:1" />
      <path
         d="M 114.12479,965.56955 L 116.34052,969.97595 L 116.34052,1006.5228 L 114.12479,1002.1164 L 114.12479,965.56955 z"
         id="rect4377"
         style="color:#000000;fill:#2161c4;fill-opacity:1;fill-rule:evenodd;stroke:#000000;stroke-width:1.62862325;stroke-linecap:butt;stroke-linejoin:round;marker:none;marker-start:none;marker-mid:none;marker-end:none;stroke-miterlimit:4;stroke-dashoffset:0;stroke-opacity:1;visibility:visible;display:inline;overflow:visible;enable-background:accumulate" />
      <use
         transform="matrix(-1,0,0,1,248.03152,-5.7314654e-6)"
         id="use4380"
         style="fill:#2161c4;fill-opacity:1;stroke:#000000;stroke-width:1.64560151;stroke-opacity:1"
         x="0"
         y="0"
         width="248.03149"
         height="248.03149"
         xlink:href="#path4924" />
      <use
         transform="matrix(-1,0,0,1,248.03153,-7.8930502e-6)"
         id="use4382"
         style="fill:#2161c4;fill-opacity:1;stroke:#000000;stroke-width:1.64560151;stroke-opacity:1"
         x="0"
         y="0"
         width="248.03149"
         height="248.03149"
         xlink:href="#rect4377" />
    </g>
    <g
       transform="matrix(0.7512942,-0.6599674,0.6599674,0.7512942,-799.79309,515.73977)"
       id="g4418">
      <path
         d="M 365.20627,1002.2383 C 365.09021,1006.0593 368.30307,1011.091 374.37146,1011.091 C 380.43856,1011.091 383.65271,1006.0593 383.53665,1002.2383 L 381.91571,948.87253 L 366.82719,948.87253 L 365.20627,1002.2383 z"
         id="path4409"
         style="fill:#efde39;fill-opacity:1;fill-rule:evenodd;stroke:#000000;stroke-width:1px;stroke-linecap:butt;stroke-linejoin:miter;stroke-opacity:1" />
      <path
         d="M 374.88419,139.76297 C 371.46363,136.27117 369.27792,134.36567 363.06987,132.00431 C 374.02395,99.989778 368.14584,59.804941 329.56658,67.819059 C 365.23173,3.76199 452.06933,63.701483 374.88419,139.76297 z"
         transform="translate(0,804.33069)"
         id="path4416"
         style="fill:#ffffff;fill-opacity:1;fill-rule:evenodd;stroke:#000000;stroke-width:0.99921262;stroke-linecap:butt;stroke-linejoin:round;stroke-miterlimit:4;stroke-dasharray:none;stroke-opacity:1" />
      <rect
         width="25.061953"
         height="10.598338"
         rx="5.2991691"
         ry="5.2991691"
         x="361.84048"
         y="941.14197"
         id="rect4414"
         style="opacity:1;color:#000000;fill:#efde39;fill-opacity:1;fill-rule:evenodd;stroke:#000000;stroke-width:1.00000012px;stroke-linecap:butt;stroke-linejoin:miter;marker:none;marker-start:none;marker-mid:none;marker-end:none;stroke-miterlimit:4;stroke-dasharray:none;stroke-dashoffset:0;stroke-opacity:1;visibility:visible;display:inline;overflow:visible;enable-background:accumulate" />
    </g>
    <path
       d="M 3.4327548,798.81041 L 7.4081899,965.80509 C 10.247779,1085.087 215.26688,1085.087 218.10648,965.80509 L 222.08191,798.81041 L 3.4327548,798.81041 z"
       id="path4580"
       style="fill:none;fill-opacity:1;fill-rule:evenodd;stroke:#000000;stroke-width:2;stroke-linecap:butt;stroke-miterlimit:4;stroke-dashoffset:0;stroke-opacity:1" />
  </g>
</svg>

<svg xmlns="http://www.w3.org/2000/svg" xmlns:xlink="http://www.w3.org/1999/xlink" version="1.0" width="220.649" height="258.456"><path d="m3.433 798.81 3.975 166.995c2.84 119.282 207.859 119.282 210.698 0l3.976-166.995H3.432z" style="fill:#2161c4;fill-opacity:1;fill-rule:evenodd;stroke:none;stroke-width:2;stroke-linecap:butt;stroke-miterlimit:4;stroke-dashoffset:0;stroke-opacity:1" transform="translate(-2.433 -797.81)"/><path d="m3.5-5.531 204.25 207.25c6.24-11.426 9.977-24.846 10.344-40.25l4-167H3.5z" transform="translate(-2.433 6.52)" style="opacity:1;color:#000;fill:#fff;fill-opacity:1;fill-rule:evenodd;stroke:#000;stroke-width:1.00000012px;stroke-linecap:butt;stroke-linejoin:miter;marker:none;marker-start:none;marker-mid:none;marker-end:none;stroke-miterlimit:4;stroke-dasharray:none;stroke-dashoffset:0;stroke-opacity:1;visibility:visible;display:inline;overflow:visible;enable-background:accumulate"/><g transform="rotate(-45 -486.44 235.027) scale(.61296 .6141)" style="fill:#2161c4;fill-opacity:1;stroke:#000;stroke-width:1.62990654;stroke-opacity:1"><path d="M186.605 960.237c-5.518-57.707-25.56-106.472-60.918-151.982-.967-1.244-2.425-1.205-3.37 0-35.48 45.282-55.373 94.275-60.89 151.982 41.791 19.63 83.432 18.598 125.178 0z" style="fill:#2161c4;fill-opacity:1;fill-rule:evenodd;stroke:#000;stroke-width:1.62990654px;stroke-linecap:butt;stroke-linejoin:round;stroke-opacity:1"/><path d="M62.054 955.34c41.363 19.224 82.58 18.222 123.897-.003" style="fill:#2161c4;fill-opacity:1;fill-rule:evenodd;stroke:#000;stroke-width:1.62990654px;stroke-linecap:butt;stroke-linejoin:round;stroke-opacity:1"/><path d="m101.025 1020.671 22.806 8.901 23.035-8.9c1.037-43.735-2.095-89.186-19.794-129.183-1.464-3.308-4.762-3.294-6.253 0-18.115 40.02-20.155 85.44-19.794 129.182z" style="fill:#2161c4;fill-opacity:1;fill-rule:evenodd;stroke:#000;stroke-width:1.62990654px;stroke-linecap:butt;stroke-linejoin:miter;stroke-opacity:1"/><path d="m95.783 971.933-3.303 44.438 21.405-13.5.24-37.301c-4.191.576-15.198 2.945-18.342 6.363z" id="a" style="fill:#2161c4;fill-opacity:1;fill-rule:evenodd;stroke:#000;stroke-width:1.62862325;stroke-linecap:butt;stroke-linejoin:round;stroke-miterlimit:4;stroke-dasharray:none;stroke-opacity:1"/><path d="M124.016 1026.513c11.102 0 22.853-4.235 22.853-9.467 0-3.87-8.592-8.729-15.178-10.523l2.455-3.653c9.35 1.067 21.405 7.126 21.405 14.11 0 7.127-14.681 12.74-31.535 12.74s-31.536-5.613-31.536-12.74c0-6.984 12.056-13.043 21.405-14.11l2.456 3.653c-6.586 1.794-15.178 6.654-15.178 10.523 0 5.232 11.75 9.467 22.853 9.467z" style="fill:#2161c4;fill-opacity:1;fill-rule:evenodd;stroke:#000;stroke-width:1.62862325;stroke-linecap:butt;stroke-linejoin:round;stroke-miterlimit:4;stroke-dasharray:none;stroke-opacity:1"/><path d="m114.125 965.57 2.216 4.406v36.547l-2.216-4.407V965.57z" id="b" style="color:#000;fill:#2161c4;fill-opacity:1;fill-rule:evenodd;stroke:#000;stroke-width:1.62862325;stroke-linecap:butt;stroke-linejoin:round;marker:none;marker-start:none;marker-mid:none;marker-end:none;stroke-miterlimit:4;stroke-dashoffset:0;stroke-opacity:1;visibility:visible;display:inline;overflow:visible;enable-background:accumulate"/><use transform="matrix(-1 0 0 1 248.032 0)" style="fill:#2161c4;fill-opacity:1;stroke:#000;stroke-width:1.64560151;stroke-opacity:1" width="248.031" height="248.031" xlink:href="#a"/><use transform="matrix(-1 0 0 1 248.032 0)" style="fill:#2161c4;fill-opacity:1;stroke:#000;stroke-width:1.64560151;stroke-opacity:1" width="248.031" height="248.031" xlink:href="#b"/></g><g transform="rotate(-41.297 -775.365 923.36)"><path d="M365.206 1002.238c-.116 3.821 3.097 8.853 9.165 8.853s9.282-5.032 9.166-8.853l-1.621-53.365h-15.089l-1.62 53.365z" style="fill:#efde39;fill-opacity:1;fill-rule:evenodd;stroke:#000;stroke-width:1px;stroke-linecap:butt;stroke-linejoin:miter;stroke-opacity:1"/><path d="M374.884 139.763c-3.42-3.492-5.606-5.397-11.814-7.759 10.954-32.014 5.076-72.2-33.503-64.185 35.665-64.057 122.502-4.118 45.317 71.944z" transform="translate(0 804.33)" style="fill:#fff;fill-opacity:1;fill-rule:evenodd;stroke:#000;stroke-width:.99921262;stroke-linecap:butt;stroke-linejoin:round;stroke-miterlimit:4;stroke-dasharray:none;stroke-opacity:1"/><rect width="25.062" height="10.598" rx="5.299" ry="5.299" x="361.84" y="941.142" style="opacity:1;color:#000;fill:#efde39;fill-opacity:1;fill-rule:evenodd;stroke:#000;stroke-width:1.00000012px;stroke-linecap:butt;stroke-linejoin:miter;marker:none;marker-start:none;marker-mid:none;marker-end:none;stroke-miterlimit:4;stroke-dasharray:none;stroke-dashoffset:0;stroke-opacity:1;visibility:visible;display:inline;overflow:visible;enable-background:accumulate"/></g><path d="m3.433 798.81 3.975 166.995c2.84 119.282 207.859 119.282 210.698 0l3.976-166.995H3.432z" style="fill:none;fill-opacity:1;fill-rule:evenodd;stroke:#000;stroke-width:2;stroke-linecap:butt;stroke-miterlimit:4;stroke-dashoffset:0;stroke-opacity:1" transform="translate(-2.433 -797.81)"/></svg>
